static/images/abinit-icon-light.svg

<?xml version="1.0" encoding="UTF-8" standalone="no"?>
<!-- Created with Inkscape (http://www.inkscape.org/) -->

<svg
   id="svg2"
   version="1.1"
   inkscape:version="1.2.2 (b0a8486541, 2022-12-01)"
   width="108.4617"
   height="97.605125"
   xml:space="preserve"
   sodipodi:docname="abinit-icon-light.svg"
   xmlns:inkscape="http://www.inkscape.org/namespaces/inkscape"
   xmlns:sodipodi="http://sodipodi.sourceforge.net/DTD/sodipodi-0.dtd"
   xmlns="http://www.w3.org/2000/svg"
   xmlns:svg="http://www.w3.org/2000/svg"
   xmlns:rdf="http://www.w3.org/1999/02/22-rdf-syntax-ns#"
   xmlns:cc="http://creativecommons.org/ns#"
   xmlns:dc="http://purl.org/dc/elements/1.1/"><metadata
     id="metadata8"><rdf:RDF><cc:Work
         rdf:about=""><dc:format>image/svg+xml</dc:format><dc:type
           rdf:resource="http://purl.org/dc/dcmitype/StillImage" /></cc:Work></rdf:RDF></metadata><defs
     id="defs6"><clipPath
       clipPathUnits="userSpaceOnUse"
       id="clipPath16"><path
         d="m 361.261,399.102 c -1.861,-0.081 -3.496,-0.166 -5.614,-0.286 v 0 l -2.447,-0.15 -2.862,-0.191 c -3.761,-0.262 -7.473,-0.558 -11.278,-0.904 v 0 c -15.212,-1.367 -30.658,-3.527 -43.576,-5.94 v 0 c -13.014,-2.419 -23.79,-5.046 -32.578,-7.639 v 0 c -17.37,-5.194 -28.241,-10.35 -31.852,-14.866 v 0 c 5.26,2.461 11.249,4.909 18.3,7.345 v 0 c 6.961,2.432 14.99,4.846 23.951,7.165 v 0 c 8.957,2.315 19.034,4.538 29.987,6.453 v 0 c 10.938,1.919 22.739,3.485 34.438,4.518 v 0 c 2.91,0.26 5.878,0.491 8.704,0.683 v 0 l 2.063,0.137 2.441,0.146 c 1.111,0.062 2.697,0.152 3.993,0.21 v 0 c 5.444,0.251 10.59,0.343 15.394,0.302 v 0 c 9.54,-0.106 17.617,-0.758 23.907,-1.791 v 0 c 6.226,-1.044 11.171,-2.393 13.841,-4.059 v 0 c 1.323,-0.832 2.241,-1.73 1.912,-2.745 v 0 c -0.126,-0.503 -0.542,-1.036 -1.662,-1.602 v 0 c -1.049,-0.559 -2.92,-1.177 -6.084,-1.716 v 0 c 3.485,0.388 6.664,1.099 8.761,1.762 v 0 c 2.117,0.674 3.474,1.335 4.508,1.969 v 0 c 1.89,1.258 2.478,2.422 2.249,3.488 v 0 c -0.571,2.123 -3.831,3.961 -9.847,5.37 v 0 c -5.988,1.405 -14.724,2.423 -26.707,2.648 v 0 c -1.583,0.031 -3.223,0.047 -4.916,0.047 v 0 c -4.671,0 -9.732,-0.119 -15.026,-0.354"
         id="path18"
         inkscape:connector-curvature="0" /></clipPath><linearGradient
       x1="0"
       y1="0"
       x2="1"
       y2="0"
       gradientUnits="userSpaceOnUse"
       gradientTransform="matrix(-186.74947,0,0,186.74947,417.80396,384.29086)"
       spreadMethod="pad"
       id="linearGradient24"><stop
         style="stop-opacity:1;stop-color:#f1923d"
         offset="0"
         id="stop26" /><stop
         style="stop-opacity:1;stop-color:#e9643b"
         offset="0.431763"
         id="stop28" /><stop
         style="stop-opacity:1;stop-color:#e9643b"
         offset="0.431763"
         id="stop30" /><stop
         style="stop-opacity:1;stop-color:#e33a37"
         offset="0.828491"
         id="stop32" /><stop
         style="stop-opacity:1;stop-color:#e33a37"
         offset="1"
         id="stop34" /></linearGradient><clipPath
       clipPathUnits="userSpaceOnUse"
       id="clipPath42"><path
         d="M 0,841.89 H 595.28 V 0 H 0 Z"
         id="path44"
         inkscape:connector-curvature="0" /></clipPath><clipPath
       clipPathUnits="userSpaceOnUse"
       id="clipPath54"><path
         d="m 380.041,463.387 c -6.049,-3.07 -12.494,-5.861 -19.708,-8.532 v 0 c -7.647,-2.865 -16.348,-5.635 -25.859,-8.234 v 0 c -10.379,-2.832 -21.285,-5.279 -32.415,-7.276 v 0 c -12.011,-2.162 -24.893,-3.845 -37.257,-4.866 v 0 c -3.122,-0.261 -6.29,-0.489 -9.419,-0.677 v 0 l -2.233,-0.128 -2.691,-0.139 c -1.2,-0.056 -2.889,-0.135 -4.276,-0.182 v 0 c -3.414,-0.122 -6.824,-0.184 -10.133,-0.184 v 0 c -2.192,0 -4.385,0.027 -6.515,0.08 v 0 c -9.852,0.277 -18.778,1.162 -25.811,2.559 v 0 c -7.011,1.417 -12.1,3.146 -14.713,4.997 v 0 c -2.022,1.441 -1.822,2.143 -1.743,2.428 v 0 c 0.036,0.161 0.144,0.653 1.364,1.323 v 0 c 0.859,0.499 2.649,1.228 6.293,1.864 v 0 l -0.252,1.781 c -3.407,-0.369 -7.027,-1.126 -9.689,-2.024 v 0 c -2.069,-0.703 -3.684,-1.469 -5.115,-2.43 v 0 c -2.189,-1.596 -3.119,-3.307 -2.755,-5.124 v 0 c 0.735,-2.973 4.559,-5.435 11.366,-7.315 v 0 c 7.244,-2.005 17.075,-3.247 29.217,-3.692 v 0 c 3.102,-0.117 6.438,-0.176 9.917,-0.176 v 0 c 3.767,0 7.733,0.069 11.79,0.207 v 0 c 2.023,0.065 3.8,0.141 6.109,0.25 v 0 l 2.659,0.14 3.109,0.183 c 4.156,0.257 8.166,0.552 12.253,0.902 v 0 c 15.902,1.343 32.715,3.635 47.342,6.454 v 0 c 13.037,2.5 24.946,5.43 35.398,8.712 v 0 c 18.775,5.973 30.844,12.118 34.905,17.771 v 0 l 2.155,2.999 z"
         id="path56"
         inkscape:connector-curvature="0" /></clipPath><linearGradient
       x1="0"
       y1="0"
       x2="1"
       y2="0"
       gradientUnits="userSpaceOnUse"
       gradientTransform="matrix(-206.29733,0,0,206.29733,383.33398,446.24841)"
       spreadMethod="pad"
       id="linearGradient62"><stop
         style="stop-opacity:1;stop-color:#f1923d"
         offset="0"
         id="stop64" /><stop
         style="stop-opacity:1;stop-color:#e9643b"
         offset="0.431763"
         id="stop66" /><stop
         style="stop-opacity:1;stop-color:#e9643b"
         offset="0.431763"
         id="stop68" /><stop
         style="stop-opacity:1;stop-color:#e33a37"
         offset="0.828491"
         id="stop70" /><stop
         style="stop-opacity:1;stop-color:#e33a37"
         offset="1"
         id="stop72" /></linearGradient><clipPath
       clipPathUnits="userSpaceOnUse"
       id="clipPath80"><path
         d="M 0,841.89 H 595.28 V 0 H 0 Z"
         id="path82"
         inkscape:connector-curvature="0" /></clipPath></defs><sodipodi:namedview
     pagecolor="#ffffff"
     bordercolor="#666666"
     borderopacity="1"
     objecttolerance="10"
     gridtolerance="10"
     guidetolerance="10"
     inkscape:pageopacity="0"
     inkscape:pageshadow="2"
     inkscape:window-width="1680"
     inkscape:window-height="981"
     id="namedview4"
     showgrid="false"
     fit-margin-top="0"
     fit-margin-left="0"
     fit-margin-right="0"
     fit-margin-bottom="0"
     inkscape:zoom="1.7940585"
     inkscape:cx="-31.771539"
     inkscape:cy="-61.592194"
     inkscape:window-x="1200"
     inkscape:window-y="708"
     inkscape:window-maximized="1"
     inkscape:current-layer="g10"
     inkscape:showpageshadow="false"
     borderlayer="false"
     inkscape:pagecheckerboard="true"
     inkscape:deskcolor="#d1d1d1" /><g
     id="g10"
     inkscape:groupmode="layer"
     inkscape:label="Logo"
     transform="matrix(1.25,0,0,-1.25,-222.41423,591.05267)"><g
       id="g38"><g
         id="g40"
         clip-path="url(#clipPath42)"><g
           id="g46"
           transform="translate(245.9614,428.8261)"><path
             id="path48"
             style="fill:#5c5c5b;fill-opacity:1;fill-rule:nonzero;stroke:none"
             d="m -3.2517655,44.010707 c -0.4844995,0.01475 -0.977063,-10e-4 -1.4765625,-0.05 -0.997999,-0.098 -1.9377509,-0.305188 -2.81875,-0.617188 -0.8809991,-0.313999 -1.4980004,-0.66625 -1.85,-1.056249 -0.3519996,-0.432 -0.5673126,-0.960939 -0.645313,-1.585938 -0.079,-0.626999 -0.079,-1.234876 0,-1.821875 0.078,-0.704999 0.2139382,-1.428876 0.410938,-2.171875 -2.310998,-3.719996 -4.75819,-7.656254 -7.342188,-11.80625 -1.096998,-1.761998 -2.281126,-3.670002 -3.553125,-5.725 -1.271998,-2.055998 -2.594063,-4.199252 -3.964062,-6.43125 -1.340128,-2.18174 -2.719763,-4.4236354 -4.134375,-6.7171875 1.13057,-0.10072 2.281889,-0.1914468 3.454687,-0.2734375 0.966593,1.6277189 1.964881,3.3157411 2.910938,4.90625 2.269998,3.816996 4.326189,7.261941 6.167187,10.335938 1.839999,3.073996 3.386064,5.667252 4.639063,7.78125 1.252999,2.114997 2.0945629,3.4855 2.5265625,4.112499 0.1949998,-2.897997 0.5585005,-5.805877 1.0875,-8.721874 0.5279995,-2.917998 1.1923133,-5.776003 1.9953125,-8.575001 0.8019992,-2.799997 1.692876,-5.511377 2.671875,-8.1343745 0.2684174,-0.7194353 0.5573352,-1.402854 0.8375,-2.1015625 0.8431162,0.022719 1.68263083,0.038713 2.528125,0.06875 1.3579986,0.047 3.0095637,0.1236876 4.2015625,0.1796875 l 0.1,0.00312 2.6359375,0.1359375 0.6578125,0.0375 C 7.289496,7.1192461 6.8213684,8.4678433 6.4013595,9.8372695 5.4223605,13.027266 4.6195464,16.15046 3.993547,19.204457 c -0.6269994,3.053997 -1.1355629,5.95119 -1.5265625,8.692188 -0.3919996,2.740997 -0.7056252,5.178502 -0.940625,7.3125 -0.2349998,2.133997 -0.4406252,3.876563 -0.615625,5.226562 -0.17699982,1.350999 -0.38218774,2.164063 -0.6171875,2.439062 -0.46999953,0.508 -1.17406344,0.839876 -2.1140625,0.996876 -0.4694995,0.078 -0.9467505,0.124312 -1.43125,0.139062 z M -29.681453,4.3153945 c -0.911026,-1.4769308 -1.820647,-2.9543192 -2.73125,-4.43125 1.186128,-0.0650338 2.404639,-0.12172331 3.65625,-0.1703125 0.870231,1.4696398 1.701275,2.8670052 2.55625,4.3078125 -1.188495,0.088574 -2.349422,0.1869281 -3.48125,0.29375 z M 8.474797,4.020082 7.2357345,3.948207 4.587297,3.8122695 C 3.3822982,3.7552696 1.6614831,3.674332 0.2544845,3.626332 c -0.63606411,-0.022684 -1.24806081,-0.031621 -1.8765625,-0.05 0.5025006,-1.1795699 1.02449568,-2.3260651 1.5625,-3.44375 l 7.1359375,0.28125 C 8.034091,0.47625645 8.9918838,0.54150887 9.9482345,0.6091445 9.4246497,1.7327189 8.9388563,2.8717967 8.474797,4.020082 Z m -8.534375,-3.8875 -14.85625,-0.5875 c 1.970018,0.0209354 3.978191,0.0590241 6.028125,0.115625 l 8.8875,0.3390625 C -0.02095251,0.04267495 -0.0388812,0.08958513 -0.059578,0.132582 Z M 11.157609,-1.114293 C 9.2406595,-1.2538507 7.3213547,-1.384494 5.3701095,-1.504918 l -3.1171875,-0.1828125 -1.4171875,-0.075 c 1.4652103,-2.0703234 2.8830526,-3.7948897 4.2484375,-5.125 1.5849984,-1.5459985 3.0038138,-2.4368752 4.2578125,-2.671875 1.7999985,-0.3519996 3.2788135,-0.4588745 4.4328125,-0.321875 1.154999,0.1379999 1.9675,0.4403755 2.4375,0.909375 0.47,0.4699995 0.605937,1.0381257 0.410937,1.703125 -0.195999,0.6659993 -0.704563,1.3512507 -1.526562,2.05625 -1.46484,1.2694728 -2.771989,2.639591 -3.939063,4.0984375 z m -43.545312,-0.80625 c -2.135991,-3.4545327 -4.205535,-6.8078037 -6.160938,-9.982812 -2.132997,-3.464997 -4.041001,-6.559253 -5.725,-9.28125 -1.682998,-2.720998 -3.062626,-4.951752 -4.140625,-6.693751 -1.075998,-1.741998 -1.713375,-2.79075 -1.909375,-3.14375 -0.547999,-0.859999 -0.831562,-1.574188 -0.851562,-2.142187 -0.019,-0.566999 0.128625,-0.949313 0.440625,-1.145312 0.314,-0.196 0.744188,-0.196 1.292187,0 0.548,0.195999 1.155314,0.645 1.820313,1.349999 0.47,0.509 1.321689,1.71294 2.554687,3.610938 1.232999,1.899998 2.740877,4.28919 4.521875,7.167188 1.782999,2.876997 3.749128,6.107066 5.903125,9.689062 1.999381,3.3273472 4.06212,6.8098585 6.164063,10.390625 -1.332243,0.049747 -2.632814,0.1123043 -3.909375,0.18125 z" /></g></g></g><g
       id="g50"><g
         id="g52"
         clip-path="url(#clipPath54)"><g
           id="g58"><g
             id="g60"><path
               id="path74"
               style="fill:url(#linearGradient62);stroke:none"
               d="m 380.44713,462.58368 c -5.68699,-2.887 -12.167,-5.74488 -19.8,-8.57187 -7.53399,-2.823 -16.22994,-5.60738 -25.93593,-8.25938 -9.70199,-2.647 -20.62076,-5.16319 -32.49375,-7.29219 -11.85599,-2.13499 -24.6522,-3.82912 -37.34219,-4.87812 -3.155,-0.265 -6.37463,-0.49413 -9.44063,-0.67813 l -2.2375,-0.12968 -2.64843,-0.13594 c -1.205,-0.057 -2.92582,-0.13794 -4.33282,-0.18594 -3.50499,-0.125 -6.89606,-0.18437 -10.16406,-0.18437 -2.239,0 -4.42119,0.0283 -6.54219,0.0813 -10.35499,0.291 -19.12806,1.21956 -25.96406,2.57656 -6.76599,1.368 -12.14581,3.08431 -15.05781,5.14531 -1.442,1.03 -2.44644,2.13269 -2.09844,3.35469 0.132,0.605 0.57963,1.24438 1.79063,1.90937 1.134,0.658 3.15963,1.37288 6.59062,1.97188 -3.77999,-0.41 -7.22588,-1.21581 -9.49687,-1.98281 -2.291,-0.779 -3.75957,-1.55569 -4.87657,-2.30469 -2.04099,-1.489 -2.66893,-2.88625 -2.41093,-4.18125 0.638,-2.578 4.19338,-4.85606 10.73437,-6.66406 6.512,-1.802 16.00295,-3.18338 29.01094,-3.65938 3.104,-0.117 6.41225,-0.175 9.88125,-0.175 3.754,0 7.69394,0.0693 11.76094,0.20625 2.01899,0.066 3.79162,0.142 6.09062,0.25 l 2.65625,0.13906 3.10469,0.18282 c 4.08,0.252 8.10638,0.547 12.23437,0.9 16.49999,1.393 33.24589,3.74319 47.24688,6.44218 14.10499,2.705 25.77832,5.69738 35.29531,8.68438 18.80898,5.98599 30.56532,12.03707 34.44531,17.43906 z" /></g></g></g></g></g></svg>

<?xml version="1.0" encoding="UTF-8" standalone="no"?>
<!-- Created with Inkscape (http://www.inkscape.org/) -->

<svg
   id="svg2"
   version="1.1"
   inkscape:version="1.2.2 (b0a8486541, 2022-12-01)"
   width="112"
   height="112"
   xml:space="preserve"
   sodipodi:docname="abinit-icon-light.svg"
   xmlns:inkscape="http://www.inkscape.org/namespaces/inkscape"
   xmlns:sodipodi="http://sodipodi.sourceforge.net/DTD/sodipodi-0.dtd"
   xmlns="http://www.w3.org/2000/svg"
   xmlns:svg="http://www.w3.org/2000/svg"
   xmlns:rdf="http://www.w3.org/1999/02/22-rdf-syntax-ns#"
   xmlns:cc="http://creativecommons.org/ns#"
   xmlns:dc="http://purl.org/dc/elements/1.1/"><metadata
     id="metadata8"><rdf:RDF><cc:Work
         rdf:about=""><dc:format>image/svg+xml</dc:format><dc:type
           rdf:resource="http://purl.org/dc/dcmitype/StillImage" /></cc:Work></rdf:RDF></metadata><defs
     id="defs6"><clipPath
       clipPathUnits="userSpaceOnUse"
       id="clipPath16"><path
         d="m 361.261,399.102 c -1.861,-0.081 -3.496,-0.166 -5.614,-0.286 v 0 l -2.447,-0.15 -2.862,-0.191 c -3.761,-0.262 -7.473,-0.558 -11.278,-0.904 v 0 c -15.212,-1.367 -30.658,-3.527 -43.576,-5.94 v 0 c -13.014,-2.419 -23.79,-5.046 -32.578,-7.639 v 0 c -17.37,-5.194 -28.241,-10.35 -31.852,-14.866 v 0 c 5.26,2.461 11.249,4.909 18.3,7.345 v 0 c 6.961,2.432 14.99,4.846 23.951,7.165 v 0 c 8.957,2.315 19.034,4.538 29.987,6.453 v 0 c 10.938,1.919 22.739,3.485 34.438,4.518 v 0 c 2.91,0.26 5.878,0.491 8.704,0.683 v 0 l 2.063,0.137 2.441,0.146 c 1.111,0.062 2.697,0.152 3.993,0.21 v 0 c 5.444,0.251 10.59,0.343 15.394,0.302 v 0 c 9.54,-0.106 17.617,-0.758 23.907,-1.791 v 0 c 6.226,-1.044 11.171,-2.393 13.841,-4.059 v 0 c 1.323,-0.832 2.241,-1.73 1.912,-2.745 v 0 c -0.126,-0.503 -0.542,-1.036 -1.662,-1.602 v 0 c -1.049,-0.559 -2.92,-1.177 -6.084,-1.716 v 0 c 3.485,0.388 6.664,1.099 8.761,1.762 v 0 c 2.117,0.674 3.474,1.335 4.508,1.969 v 0 c 1.89,1.258 2.478,2.422 2.249,3.488 v 0 c -0.571,2.123 -3.831,3.961 -9.847,5.37 v 0 c -5.988,1.405 -14.724,2.423 -26.707,2.648 v 0 c -1.583,0.031 -3.223,0.047 -4.916,0.047 v 0 c -4.671,0 -9.732,-0.119 -15.026,-0.354"
         id="path18"
         inkscape:connector-curvature="0" /></clipPath><linearGradient
       x1="0"
       y1="0"
       x2="1"
       y2="0"
       gradientUnits="userSpaceOnUse"
       gradientTransform="matrix(-186.74947,0,0,186.74947,417.80396,384.29086)"
       spreadMethod="pad"
       id="linearGradient24"><stop
         style="stop-opacity:1;stop-color:#f1923d"
         offset="0"
         id="stop26" /><stop
         style="stop-opacity:1;stop-color:#e9643b"
         offset="0.431763"
         id="stop28" /><stop
         style="stop-opacity:1;stop-color:#e9643b"
         offset="0.431763"
         id="stop30" /><stop
         style="stop-opacity:1;stop-color:#e33a37"
         offset="0.828491"
         id="stop32" /><stop
         style="stop-opacity:1;stop-color:#e33a37"
         offset="1"
         id="stop34" /></linearGradient><clipPath
       clipPathUnits="userSpaceOnUse"
       id="clipPath42"><path
         d="M 0,841.89 H 595.28 V 0 H 0 Z"
         id="path44"
         inkscape:connector-curvature="0" /></clipPath><clipPath
       clipPathUnits="userSpaceOnUse"
       id="clipPath54"><path
         d="m 380.041,463.387 c -6.049,-3.07 -12.494,-5.861 -19.708,-8.532 v 0 c -7.647,-2.865 -16.348,-5.635 -25.859,-8.234 v 0 c -10.379,-2.832 -21.285,-5.279 -32.415,-7.276 v 0 c -12.011,-2.162 -24.893,-3.845 -37.257,-4.866 v 0 c -3.122,-0.261 -6.29,-0.489 -9.419,-0.677 v 0 l -2.233,-0.128 -2.691,-0.139 c -1.2,-0.056 -2.889,-0.135 -4.276,-0.182 v 0 c -3.414,-0.122 -6.824,-0.184 -10.133,-0.184 v 0 c -2.192,0 -4.385,0.027 -6.515,0.08 v 0 c -9.852,0.277 -18.778,1.162 -25.811,2.559 v 0 c -7.011,1.417 -12.1,3.146 -14.713,4.997 v 0 c -2.022,1.441 -1.822,2.143 -1.743,2.428 v 0 c 0.036,0.161 0.144,0.653 1.364,1.323 v 0 c 0.859,0.499 2.649,1.228 6.293,1.864 v 0 l -0.252,1.781 c -3.407,-0.369 -7.027,-1.126 -9.689,-2.024 v 0 c -2.069,-0.703 -3.684,-1.469 -5.115,-2.43 v 0 c -2.189,-1.596 -3.119,-3.307 -2.755,-5.124 v 0 c 0.735,-2.973 4.559,-5.435 11.366,-7.315 v 0 c 7.244,-2.005 17.075,-3.247 29.217,-3.692 v 0 c 3.102,-0.117 6.438,-0.176 9.917,-0.176 v 0 c 3.767,0 7.733,0.069 11.79,0.207 v 0 c 2.023,0.065 3.8,0.141 6.109,0.25 v 0 l 2.659,0.14 3.109,0.183 c 4.156,0.257 8.166,0.552 12.253,0.902 v 0 c 15.902,1.343 32.715,3.635 47.342,6.454 v 0 c 13.037,2.5 24.946,5.43 35.398,8.712 v 0 c 18.775,5.973 30.844,12.118 34.905,17.771 v 0 l 2.155,2.999 z"
         id="path56"
         inkscape:connector-curvature="0" /></clipPath><linearGradient
       x1="0"
       y1="0"
       x2="1"
       y2="0"
       gradientUnits="userSpaceOnUse"
       gradientTransform="matrix(-206.29733,0,0,206.29733,383.33398,446.24841)"
       spreadMethod="pad"
       id="linearGradient62"><stop
         style="stop-opacity:1;stop-color:#f1923d"
         offset="0"
         id="stop64" /><stop
         style="stop-opacity:1;stop-color:#e9643b"
         offset="0.431763"
         id="stop66" /><stop
         style="stop-opacity:1;stop-color:#e9643b"
         offset="0.431763"
         id="stop68" /><stop
         style="stop-opacity:1;stop-color:#e33a37"
         offset="0.828491"
         id="stop70" /><stop
         style="stop-opacity:1;stop-color:#e33a37"
         offset="1"
         id="stop72" /></linearGradient><clipPath
       clipPathUnits="userSpaceOnUse"
       id="clipPath80"><path
         d="M 0,841.89 H 595.28 V 0 H 0 Z"
         id="path82"
         inkscape:connector-curvature="0" /></clipPath></defs><sodipodi:namedview
     pagecolor="#ffffff"
     bordercolor="#666666"
     borderopacity="1"
     objecttolerance="10"
     gridtolerance="10"
     guidetolerance="10"
     inkscape:pageopacity="0"
     inkscape:pageshadow="2"
     inkscape:window-width="1680"
     inkscape:window-height="981"
     id="namedview4"
     showgrid="false"
     fit-margin-top="0"
     fit-margin-left="0"
     fit-margin-right="0"
     fit-margin-bottom="0"
     inkscape:zoom="5.0743637"
     inkscape:cx="65.229853"
     inkscape:cy="71.634597"
     inkscape:window-x="1200"
     inkscape:window-y="708"
     inkscape:window-maximized="1"
     inkscape:current-layer="g10"
     inkscape:showpageshadow="false"
     borderlayer="false"
     inkscape:pagecheckerboard="true"
     inkscape:deskcolor="#d1d1d1" /><g
     id="g10"
     inkscape:groupmode="layer"
     inkscape:label="Logo"
     transform="matrix(1.25,0,0,-1.25,-222.41423,591.05267)"><g
       id="g38"
       transform="translate(2.0037332,-5.5636708)"><g
         id="g40"
         clip-path="url(#clipPath42)"><g
           id="g46"
           transform="translate(245.9614,428.8261)"><path
             id="path48"
             style="fill:#5c5c5b;fill-opacity:1;fill-rule:nonzero;stroke:none"
             d="M -3.2524992 44.010957 C -3.7369972 44.025707 -4.2295637 44.009957 -4.7290617 43.960957 C -5.7270577 43.862957 -6.6668153 43.655769 -7.5478117 43.343769 C -8.4288081 43.029773 -9.0458133 42.677518 -9.3978117 42.287519 C -9.7498101 41.855522 -9.9651245 41.326578 -10.043124 40.701582 C -10.122124 40.074583 -10.122124 39.466703 -10.043124 38.879707 C -9.9651249 38.174711 -9.8291859 37.450828 -9.6321867 36.707832 C -11.943178 32.987848 -14.390385 29.051566 -16.974374 24.901582 C -18.071369 23.13959 -19.255503 21.231574 -20.527499 19.176582 C -21.799494 17.12059 -23.121566 14.977324 -24.491562 12.745332 C -25.831684 10.563598 -27.211328 8.3216895 -28.625937 6.0281443 C -27.49537 5.9274246 -26.344044 5.8366972 -25.171249 5.7547068 C -24.204659 7.3824209 -23.206366 9.0704523 -22.260312 10.660957 C -19.99032 14.477941 -17.934116 17.922906 -16.093124 20.996894 C -14.253131 24.070881 -12.707055 26.664152 -11.454062 28.778144 C -10.201066 30.893135 -9.3594976 32.263648 -8.9274992 32.890644 C -8.7325 29.992656 -8.3689972 27.084757 -7.8399992 24.168769 C -7.3120012 21.25078 -6.6476835 18.392761 -5.8446867 15.593769 C -5.0426899 12.793781 -4.1518077 10.082383 -3.1728117 7.4593943 C -2.9043952 6.7399611 -2.6154756 6.0565382 -2.3353117 5.3578318 C -1.4921979 5.3805508 -0.65267832 5.3965448 0.1928133 5.4265818 C 1.5508077 5.4735818 3.2023806 5.5502697 4.3943758 5.6062693 L 4.4943758 5.6093943 L 7.1303133 5.7453318 L 7.7881258 5.7828318 C 7.2887638 7.119497 6.8206335 8.4680973 6.4006258 9.8375193 C 5.4216298 13.027507 4.6188109 16.150719 3.9928133 19.204707 C 3.3658157 22.258695 2.8572492 25.155905 2.4662508 27.896894 C 2.0742524 30.637885 1.760625 33.075402 1.5256258 35.209394 C 1.2906266 37.343385 1.085 39.085961 0.9100008 40.435957 C 0.73300152 41.78695 0.52781237 42.600023 0.2928133 42.875019 C -0.17718482 43.383019 -0.88125296 43.714894 -1.8212492 43.871894 C -2.2907472 43.949894 -2.7680012 43.996207 -3.2524992 44.010957 z M 11.156876 -1.1140432 C 9.2399316 -1.2536006 7.320615 -1.3842445 5.3693758 -1.5046682 L 2.2521883 -1.6874807 L 0.8350008 -1.7624807 C 2.3002066 -3.8327978 3.7180576 -5.5573743 5.0834383 -6.8874807 C 6.6684319 -8.4334747 8.087256 -9.3243565 9.3412508 -9.5593557 C 11.141244 -9.9113541 12.620067 -10.01823 13.774063 -9.8812307 C 14.929059 -9.7432311 15.741566 -9.4408537 16.211563 -8.9718557 C 16.681563 -8.5018577 16.817501 -7.9337279 16.622501 -7.2687307 C 16.426502 -6.6027335 15.917934 -5.9174779 15.095938 -5.2124807 C 13.631104 -3.9430118 12.323947 -2.5728852 11.156876 -1.1140432 z M -32.388437 -1.9202932 C -34.524422 -5.3748154 -36.593977 -8.7281064 -38.549374 -11.903106 C -40.682365 -15.368091 -42.590381 -18.462365 -44.274374 -21.184356 C -45.957369 -23.905345 -47.337003 -26.13611 -48.414999 -27.878106 C -49.490994 -29.620098 -50.128374 -30.668856 -50.324374 -31.021856 C -50.872373 -31.881852 -51.155937 -32.596047 -51.175937 -33.164043 C -51.194937 -33.731042 -51.047309 -34.113357 -50.735312 -34.309356 C -50.421312 -34.505356 -49.991123 -34.505356 -49.443124 -34.309356 C -48.895127 -34.113357 -48.287808 -33.664352 -47.622812 -32.959356 C -47.152812 -32.450356 -46.301119 -31.24641 -45.068124 -29.348418 C -43.835128 -27.448426 -42.327241 -25.05922 -40.546249 -22.181231 C -38.763256 -19.304243 -36.797115 -16.074155 -34.643124 -12.492168 C -32.643749 -9.1648313 -30.580999 -5.6822989 -28.479062 -2.1015432 C -29.811299 -2.0517962 -31.111879 -1.9892386 -32.388437 -1.9202932 z " /></g></g></g><g
       id="g50"
       transform="translate(2.0037332,-5.5636708)"><g
         id="g52"
         clip-path="url(#clipPath54)"><g
           id="g58"><g
             id="g60"><path
               id="path74"
               style="display:inline;fill:url(#linearGradient62);stroke:none"
               d="m 194.76984,447.30737 c -3.77999,-0.41 -7.22589,-1.21581 -9.49688,-1.98281 -2.29099,-0.779 -3.75956,-1.55569 -4.87656,-2.30469 -2.04099,-1.489 -2.66894,-2.88625 -2.41094,-4.18125 0.638,-2.578 4.19339,-4.85607 10.73438,-6.66406 6.51199,-1.802 16.00296,-3.18338 29.01094,-3.65938 3.10399,-0.117 6.41225,-0.175 9.88125,-0.175 3.75399,0 7.69394,0.0693 11.76093,0.20625 2.01899,0.066 3.79163,0.142 6.09063,0.25 l 2.65625,0.13906 3.10469,0.18282 c 4.07999,0.252 8.10638,0.547 12.23437,0.9 0.68889,0.0582 1.37922,0.12761 2.06875,0.18906 v 3.4375 c -0.21768,-0.0184 -0.4355,-0.0445 -0.65312,-0.0625 -3.155,-0.265 -6.37463,-0.49413 -9.44063,-0.67813 l -2.2375,-0.12968 -2.64844,-0.13594 c -1.205,-0.057 -2.92581,-0.13794 -4.33281,-0.18594 -3.50499,-0.125 -6.89606,-0.18437 -10.16406,-0.18437 -2.239,0 -4.42119,0.0283 -6.54219,0.0813 -10.35498,0.291 -19.12807,1.21956 -25.96406,2.57656 -6.76598,1.368 -12.14582,3.08431 -15.05781,5.14531 -1.442,1.03 -2.44644,2.13269 -2.09844,3.35469 0.132,0.605 0.57962,1.24438 1.79062,1.90937 1.134,0.658 3.15964,1.37288 6.59063,1.97188 z"
               sodipodi:insensitive="true" /></g></g></g></g></g></svg>
